polaris-icons/icons/new-icons/InactiveLocationMajor.svg

<svg width="20" height="20" viewBox="0 0 20 20" fill="none" xmlns="http://www.w3.org/2000/svg">
<path d="M13.3399 3.88795C12.3852 3.32717 11.2363 3 9.99999 3C6.68629 3 3.99999 5.35051 3.99999 8.25C3.99999 9.7311 4.39794 11.0729 4.99174 12.2362L6.11747 11.1104C5.73624 10.2387 5.49999 9.27791 5.49999 8.25C5.49999 6.36081 7.3203 4.5 9.99999 4.5C10.8396 4.5 11.5949 4.68269 12.2362 4.99169L13.3399 3.88795Z" fill="#4A4A4A"/>
<path d="M10.8454 6.38249C10.5791 6.29651 10.295 6.25 9.99999 6.25C8.48121 6.25 7.24999 7.48122 7.24999 9C7.24999 9.29507 7.29647 9.57918 7.38244 9.84546L10.8454 6.38249Z" fill="#4A4A4A"/>
<path fill-rule="evenodd" clip-rule="evenodd" d="M4.08567 15.2635C3.7981 15.5568 3.79987 16.0277 4.09098 16.3188C4.38387 16.6117 4.85874 16.6117 5.15164 16.3188L6.74501 14.7254C8.08623 16.1751 9.51451 17 9.99999 17C11 17 16 13.5 16 8.25C16 7.45702 15.7991 6.7051 15.4393 6.0311L16.8189 4.65154C17.1118 4.35864 17.1118 3.88377 16.8189 3.59088C16.5278 3.29974 16.0568 3.298 15.7635 3.58563C15.7618 3.58742 15.76 3.58921 15.7582 3.59099L4.09097 15.2583C4.08921 15.26 4.08744 15.2618 4.08567 15.2635ZM14.5 8.25C14.5 10.3857 13.4801 12.2316 12.2589 13.5916C11.6536 14.2656 11.0284 14.7858 10.5218 15.1267C10.3109 15.2687 10.1341 15.3705 10 15.4375C9.86591 15.3705 9.68908 15.2687 9.47818 15.1267C8.98989 14.7981 8.39127 14.3029 7.80659 13.6638L14.302 7.16845C14.4317 7.51901 14.5 7.88397 14.5 8.25ZM9.81159 15.5196C9.8072 15.5208 9.80493 15.5215 9.8049 15.5216C9.80488 15.5216 9.80533 15.5215 9.80625 15.5213C9.80735 15.521 9.80913 15.5204 9.81159 15.5196ZM10.1932 15.521L10.1951 15.5216C10.1951 15.5216 10.1944 15.5213 10.1932 15.521Z" fill="#4A4A4A"/>
</svg>

<svg viewBox="0 0 20 20" xmlns="http://www.w3.org/2000/svg"><path d="M13.34 3.888a6.591 6.591 0 0 0-3.34-.888c-3.314 0-6 2.35-6 5.25 0 1.481.398 2.823.992 3.986l1.125-1.126a7.111 7.111 0 0 1-.617-2.86c0-1.89 1.82-3.75 4.5-3.75.84 0 1.595.183 2.236.492l1.104-1.104Z" fill="#5C5F62"/><path d="M10.845 6.382a2.75 2.75 0 0 0-3.463 3.463l3.463-3.463Z" fill="#5C5F62"/><path fill-rule="evenodd" d="M4.086 15.264a.75.75 0 0 0 1.066 1.055l1.593-1.594c1.341 1.45 2.77 2.275 3.255 2.275 1 0 6-3.5 6-8.75 0-.793-.2-1.545-.56-2.219l1.379-1.38a.75.75 0 1 0-1.06-1.06l-11.668 11.667-.005.006Zm10.414-7.014c0 2.136-1.02 3.982-2.241 5.342a9.67 9.67 0 0 1-1.737 1.535c-.211.142-.388.243-.522.31a4.816 4.816 0 0 1-.522-.31 9.613 9.613 0 0 1-1.671-1.463l6.495-6.496c.13.351.198.716.198 1.082Zm-4.688 7.27a.064.064 0 0 0-.006.001l.006-.001Zm.381.001h.002-.002Z" fill="#5C5F62"/></svg>
